X: 2
T:Ballintore Fancy (as slow reel)
D:Bothy Band "Old Hag You Have Killed Me" track 4 ("Ballintore Fancy")
S:Bill Reeder  irtrad-l 2001-8-19
M:4/4
L:1/8
Q:1/4=100
K:G
A2AG A2AF | GEAF GEE2 | A2 A/B/c BG~G2 |1 BdBG c3B :|2 BdBG c3d ||
e2ed efg2 | G2GA G2E2 | A2 A/B/c BG~G2 |1 BdBG c3d :|2 BdBG c3B |]
